X: 2687
T: Banks Of Inverness, The
R: polka
M: 2/4
K: Amajor
|:EE EC|EF AB|ce (3BcB|AF FA|
EE EC|EF AB|ce (3BcB|AA A z:|
ce ec|df fd|c2 B2|AF FA|
ce ec|df fg|af (3gfe|ff fg|
a2 g2|fe cB|c2 B2|AF FA|
EE EC|EF AB|ce (3BcB|AA A z|
|:ce ce|ce e2|fe ce|fe c2|
ce ce|ce e2|fe cB|BA A2:|
|:Ac ee|fe df|ec Ac|BA FE|
Ac ee|fe df|ec AF|A2 A2:|

